Yaru++/apps/scalable/qbittorrent.svg

<svg xmlns="http://www.w3.org/2000/svg" xmlns:xlink="http://www.w3.org/1999/xlink" style="enable-background:new" width="256" height="256" version="1.0" viewBox="0 0 256 256">
 <title id="title4162">
  Adwaita Icon Template
 </title>
 <defs>
  <linearGradient id="linearGradient950">
   <stop style="stop-color:#9a9996" id="stop946" offset="0"/>
   <stop style="stop-color:#77767b" id="stop948" offset="1"/>
  </linearGradient>
  <linearGradient id="linearGradient1001" x1="1660.857" x2="1662.99" y1="806.297" y2="812.882" gradientTransform="matrix(1.8293937,-0.81599442,0.81599442,1.8293937,-3645.9624,100.02949)" gradientUnits="userSpaceOnUse" xlink:href="#linearGradient950"/>
  <clipPath id="clipPath5154" clipPathUnits="userSpaceOnUse">
   <circle style="fill:url(#radialGradient5158)" cx="128" cy="924.362" r="109.647"/>
  </clipPath>
  <clipPath id="clipPath977" clipPathUnits="userSpaceOnUse">
   <circle style="fill:url(#radialGradient5158)" cx="128" cy="924.362" r="109.647"/>
  </clipPath>
  <clipPath id="clipPath4688" clipPathUnits="userSpaceOnUse">
   <path style="fill:url(#radialGradient4692);stroke:#a7003f;stroke-linecap:round;stroke-linejoin:round" d="m 106.42383,889.60156 c -2.2448,-0.0524 -4.09304,1.75264 -4.09375,3.99805 v 32.64453 32.64453 c -4e-5,3.07923 3.33305,5.004 6,3.46485 l 28.26953,-16.32227 28.27148,-16.32227 c 2.66559,-1.54001 2.66559,-5.38772 0,-6.92773 l -28.27148,-16.32227 -28.26953,-16.32226 c -0.58054,-0.3353 -1.23603,-0.51932 -1.90625,-0.53516 z"/>
  </clipPath>
  <clipPath id="clipPath4564" clipPathUnits="userSpaceOnUse">
   <circle style="fill:url(#radialGradient4568)" cx="128" cy="924.362" r="109.647"/>
  </clipPath>
  <clipPath id="clipPath6215" clipPathUnits="userSpaceOnUse">
   <path style="fill:url(#radialGradient6219)" d="m 105.17325,806.18572 c -3.06859,0.56361 -6.11393,1.24721 -9.129005,2.04923 -3.838255,1.06506 -7.62084,2.32142 -11.333578,3.76438 -3.712189,1.44307 -7.34989,3.07087 -10.899472,4.87732 -3.549153,1.80656 -7.005749,3.78947 -10.35684,5.94129 -3.351877,2.15253 -6.593991,4.47137 -9.714191,6.94783 -3.119992,2.47544 -6.114241,5.10535 -8.971529,7.87988 -0.367219,0.38909 -0.731819,0.78065 -1.093777,1.17464 2.60205,17.85956 16.832359,40.03752 30.863064,55.74236 -4.76734,8.84435 -7.265993,18.73329 -7.272057,28.78068 0.02104,2.87431 0.246096,5.7435 0.673482,8.58593 -20.257302,-9.18513 -43.077023,-26.53494 -52.798465,-47.36396 -0.440667,1.15171 -0.863474,2.31018 -1.268271,3.47498 -1.176789,3.80495 -2.162562,7.66637 -2.953625,11.56979 -0.79154,3.90311 -1.3874065,7.84335 -1.7853678,11.80598 -0.39733,3.96334 -0.5961891,7.94407 -0.5958321,11.92728 -4.394e-4,2.81936 0.098928,5.63785 0.2979155,8.45018 0.282275,3.97319 0.763088,7.92978 1.4406374,11.85493 0.625626,3.51826 1.408798,7.00668 2.347153,10.45473 16.778133,6.68355 43.114514,5.45001 63.748015,1.14301 6.818545,11.02763 16.987182,19.58379 29.018153,24.41667 -18.071844,12.93645 -44.490188,24.02095 -67.37308,22.03245 1.384097,1.665 2.813203,3.2921 4.285735,4.8794 2.774977,2.8571 5.691103,5.5737 8.737453,8.1395 3.046107,2.5658 6.218619,4.9777 9.505651,7.2266 3.287242,2.2488 6.684891,4.3319 10.180217,6.2413 3.495379,1.9096 7.084075,3.6433 10.752641,5.1944 3.66896,1.5509 7.413193,2.9174 11.218668,4.0942 1.438565,0.3959 2.884421,0.7648 4.336807,1.1066 14.138748,-11.1844 26.206378,-34.5828 32.780368,-54.56406 12.95816,-0.38251 25.45395,-4.90132 35.65955,-12.89544 2.15922,22.12638 -1.46693,50.5581 -14.64692,69.3832 3.06859,-0.5636 6.11393,-1.2473 9.129,-2.0493 3.83826,-1.0651 7.62084,-2.3214 11.33358,-3.7644 3.71219,-1.4431 7.34989,-3.0709 10.89947,-4.8773 3.54915,-1.8066 7.00575,-3.7895 10.35684,-5.9413 3.35188,-2.1525 6.59399,-4.4714 9.71419,-6.9478 3.11999,-2.4754 6.11424,-5.1054 8.97153,-7.8799 0.36722,-0.3891 0.73182,-0.7806 1.09378,-1.1746 -2.60204,-17.85957 -16.83236,-40.03755 -30.86307,-55.74238 4.76735,-8.84435 7.266,-18.7333 7.27207,-28.78069 -0.021,-2.8743 -0.24611,-5.74349 -0.6735,-8.58592 20.25731,9.18513 43.07704,26.53494 52.79848,47.36396 0.44067,-1.15171 0.86347,-2.31018 1.26827,-3.47499 1.17679,-3.80495 2.16256,-7.66636 2.95362,-11.56978 0.79154,-3.90311 1.38741,-7.84335 1.78537,-11.80598 0.39733,-3.96334 0.59619,-7.94408 0.59583,-11.92729 4.4e-4,-2.81936 -0.0989,-5.63784 -0.29791,-8.45017 -0.28228,-3.97319 -0.76309,-7.92978 -1.44064,-11.85493 -0.62776,-3.53416 -1.41449,-7.03823 -2.35779,-10.50154 -20.56165,-7.32804 -45.89823,-4.79548 -63.74906,-1.11372 -6.81835,-11.01918 -16.98234,-19.56874 -29.00647,-24.39915 18.07184,-12.93645 44.49019,-24.02091 67.37307,-22.03241 -1.38409,-1.66502 -2.8132,-3.2921 -4.28573,-4.87944 -2.77498,-2.85712 -5.6911,-5.57368 -8.73745,-8.13949 -3.04611,-2.56581 -6.21862,-4.97769 -9.50565,-7.22659 -3.28724,-2.24885 -6.68489,-4.3319 -10.18022,-6.24135 -3.49538,-1.90963 -7.08407,-3.64325 -10.75264,-5.19438 -3.66896,-1.55092 -7.41319,-2.91736 -11.21867,-4.09421 -1.42662,-0.39262 -2.86041,-0.75869 -4.30063,-1.09804 -14.14688,11.18369 -26.2293,34.57475 -32.8107,54.55552 -12.96018,0.38127 -25.4582,4.90015 -35.665394,12.89544 -2.15922,-22.12637 1.466931,-50.55807 14.646924,-69.38315 z"/>
  </clipPath>
  <linearGradient id="linearGradient982" x1="152" x2="152" y1="124" y2="236" gradientUnits="userSpaceOnUse" xlink:href="#linearGradient980"/>
  <linearGradient id="linearGradient980">
   <stop style="stop-color:#000000" id="stop976" offset="0"/>
   <stop style="stop-color:#000000;stop-opacity:0" id="stop978" offset="1"/>
  </linearGradient>
  <clipPath id="clipPath999" clipPathUnits="userSpaceOnUse">
   <path style="fill:#5d5d5d" d="m 152,68 c -48.60106,0 -88,39.39894 -88,88 0,48.60106 39.39894,88 88,88 48.60106,0 88,-39.39894 88,-88 0,-48.60106 -39.39894,-88 -88,-88 z"/>
  </clipPath>
  <filter style="color-interpolation-filters:sRGB" id="filter1003" width="1.12" height="1.12" x="-.06" y="-.06">
   <feGaussianBlur id="feGaussianBlur1005" stdDeviation="4.4"/>
  </filter>
  <filter style="color-interpolation-filters:sRGB" id="filter11191" width="1.024" height="1.024" x="-.01" y="-.01">
   <feGaussianBlur id="feGaussianBlur11193" stdDeviation="1.12"/>
  </filter>
  <filter style="color-interpolation-filters:sRGB" id="filter11210" width="1.096" height="1.096" x="-.05" y="-.05">
   <feGaussianBlur id="feGaussianBlur11212" stdDeviation="4.48"/>
  </filter>
 </defs>
 <circle style="opacity:0.1;filter:url(#filter11210)" cx="128.752" cy="127.248" r="112"/>
 <circle style="opacity:0.1;filter:url(#filter11191)" cx="128.752" cy="125.248" r="112"/>
 <circle style="opacity:0.1" cx="128.752" cy="123.248" r="114"/>
 <circle style="fill:#1a7fd4" cx="128.752" cy="123.248" r="112"/>
 <path style="opacity:0.1;fill:#ffffff" d="M 16.751953 123.24805 A 112 112 0 0 0 17.033203 131.16992 A 112 112 0 0 0 18.380859 142.28516 A 112 112 0 0 0 20.833984 153.20703 A 112 112 0 0 0 24.363281 163.83203 A 112 112 0 0 0 28.9375 174.05078 A 112 112 0 0 0 34.507812 183.76172 A 112 112 0 0 0 41.019531 192.86914 A 112 112 0 0 0 48.408203 201.2793 A 112 112 0 0 0 56.599609 208.91016 A 112 112 0 0 0 65.511719 215.68555 A 112 112 0 0 0 75.056641 221.53711 A 112 112 0 0 0 85.136719 226.40625 A 112 112 0 0 0 95.654297 230.24609 A 112 112 0 0 0 106.50195 233.01562 A 112 112 0 0 0 117.57031 234.6875 A 112 112 0 0 0 128.75195 235.24805 A 112 112 0 0 0 136.67383 234.9668 A 112 112 0 0 0 147.78906 233.61914 A 112 112 0 0 0 158.71094 231.16602 A 112 112 0 0 0 169.33594 227.63672 A 112 112 0 0 0 179.55469 223.0625 A 112 112 0 0 0 189.26562 217.49219 A 112 112 0 0 0 198.37305 210.98047 A 112 112 0 0 0 206.7832 203.5918 A 112 112 0 0 0 214.41406 195.40039 A 112 112 0 0 0 221.18945 186.48828 A 112 112 0 0 0 227.04102 176.94336 A 112 112 0 0 0 231.91016 166.86328 A 112 112 0 0 0 235.75 156.3457 A 112 112 0 0 0 238.51953 145.49805 A 112 112 0 0 0 240.19336 134.42969 A 112 112 0 0 0 240.45898 129.13281 C 240.14915 127.15286 239.91854 125.28651 239.56836 123.24805 L 67.917969 123.24805 L 16.751953 123.24805 z"/>
 <path style="opacity:0.3;fill:#ffffff" d="M 128.752,11.248014 A 112,112 0 0 0 16.752002,123.24801 112,112 0 0 0 16.793022,124.41793 112,112 0 0 1 128.752,13.248014 112,112 0 0 1 240.71098,124.07809 a 112,112 0 0 0 0.041,-0.83008 112,112 0 0 0 -112,-111.999996 z"/>
 <path style="opacity:0.2" d="m 128.752,235.24801 c -61.855891,0 -111.999998,-50.14411 -111.999998,-112 0.01163,-0.39004 0.02531,-0.78002 0.04102,-1.16992 0.228166,30.78508 12.860843,58.59441 33.135522,78.69904 20.238667,20.06891 48.092211,32.46047 78.823456,32.47088 61.38589,-0.0191 111.31776,-49.44754 111.95898,-110.83008 0.0147,0.27664 0.0284,0.55334 0.041,0.83008 0,61.85589 -50.14411,112 -112,112 z"/>
 <g style="enable-background:new;fill:#faf8f6" transform="translate(-39.267326,-1016.961)">
  <g transform="translate(4.5937373,12.07872)" style="fill:#faf8f6">
   <g transform="translate(5.2529561,-1.0339265)" style="fill:#faf8f6">
    <path d="m 117.54762,1094.7893 c -18.984777,0 -34.374987,15.3903 -34.374987,34.3749 0,18.9848 15.39021,34.3751 34.374987,34.3751 5.43501,0 10.78982,-1.3143 15.62502,-3.7963 v 25.6712 a 9.3749994,9.3749994 0 0 0 9.375,9.375 9.3749994,9.3749994 0 0 0 9.375,-9.375 v -56.25 -34.3749 h -18.75 v 3.7597 c -4.83788,-2.4712 -10.19254,-3.7579 -15.62502,-3.7597 z m 0,18.75 c 8.62945,0 15.62502,6.9956 15.62502,15.6249 0,8.6295 -6.99557,15.6251 -15.62502,15.6251 -8.62944,0 -15.62499,-6.9956 -15.62499,-15.6251 0,-8.6293 6.99555,-15.6249 15.62499,-15.6249 z" style="fill:#aee3f8"/>
    <path d="m 173.79762,1063.5392 a 9.3749994,9.3749994 0 0 0 -9.37498,9.375 v 56.25 34.3751 h 18.74998 v -3.7597 c 4.83786,2.4709 10.19254,3.7579 15.62502,3.7597 18.98476,0 34.37499,-15.3907 34.37499,-34.3751 0,-18.9844 -15.39023,-34.3749 -34.37499,-34.3749 -5.43505,0 -10.78982,1.3083 -15.62502,3.7903 v -25.6654 a 9.3749994,9.3749994 0 0 0 -9.375,-9.375 z m 25.00002,50.0001 c 8.62942,0 15.62499,6.996 15.62499,15.6249 0,8.6291 -6.99557,15.6251 -15.62499,15.6251 -8.62949,0 -15.62502,-6.996 -15.62502,-15.6251 0,-8.6289 6.99553,-15.6249 15.62502,-15.6249 z" style="fill:#faf8f6"/>
   </g>
  </g>
 </g>
</svg>

<svg enable-background="new" height="256" viewBox="0 0 256 256" width="256" xmlns="http://www.w3.org/2000/svg" xmlns:xlink="http://www.w3.org/1999/xlink">
  <filter id="filter11191" color-interpolation-filters="sRGB" height="1.024" width="1.024" x="-.01" y="-.01">
    <feGaussianBlur stdDeviation="1.12"/>
  </filter>
  <filter id="filter11210" color-interpolation-filters="sRGB" height="1.096" width="1.096" x="-.05" y="-.05">
    <feGaussianBlur stdDeviation="4.48"/>
  </filter>
  <circle cx="128.752" cy="127.248" filter="url(#filter11210)" opacity=".1" r="112"/>
  <circle cx="128.752" cy="125.248" filter="url(#filter11191)" opacity=".1" r="112"/>
  <circle cx="128.752" cy="123.248" opacity=".1" r="114"/>
  <circle cx="128.752" cy="123.248" fill="#1a7fd4" r="112"/>
  <path d="m16.751953 123.24805a112 112 0 0 0 .28125 7.92187 112 112 0 0 0 1.347656 11.11524 112 112 0 0 0 2.453125 10.92187 112 112 0 0 0 3.529297 10.625 112 112 0 0 0 4.574219 10.21875 112 112 0 0 0 5.570312 9.71094 112 112 0 0 0 6.511719 9.10742 112 112 0 0 0 7.388672 8.41016 112 112 0 0 0 8.191406 7.63086 112 112 0 0 0 8.91211 6.77539 112 112 0 0 0 9.544922 5.85156 112 112 0 0 0 10.080078 4.86914 112 112 0 0 0 10.517578 3.83984 112 112 0 0 0 10.847653 2.76953 112 112 0 0 0 11.06836 1.67188 112 112 0 0 0 11.18164.56055 112 112 0 0 0 7.92188-.28125 112 112 0 0 0 11.11523-1.34766 112 112 0 0 0 10.92188-2.45312 112 112 0 0 0 10.625-3.5293 112 112 0 0 0 10.21875-4.57422 112 112 0 0 0 9.71093-5.57031 112 112 0 0 0 9.10743-6.51172 112 112 0 0 0 8.41015-7.38867 112 112 0 0 0 7.63086-8.19141 112 112 0 0 0 6.77539-8.91211 112 112 0 0 0 5.85157-9.54492 112 112 0 0 0 4.86914-10.08008 112 112 0 0 0 3.83984-10.51758 112 112 0 0 0 2.76953-10.84765 112 112 0 0 0 1.67383-11.06836 112 112 0 0 0 .26562-5.29688c-.30983-1.97995-.54044-3.8463-.89062-5.88476h-171.650391z" fill="#fff" opacity=".1"/>
  <path d="m128.752 11.248014a112 112 0 0 0 -111.999998 111.999996 112 112 0 0 0 .04102 1.16992 112 112 0 0 1 111.958978-111.169916 112 112 0 0 1 111.95898 110.830076 112 112 0 0 0 .041-.83008 112 112 0 0 0 -112-111.999996z" fill="#fff" opacity=".3"/>
  <path d="m128.752 235.24801c-61.855891 0-111.999998-50.14411-111.999998-112 .01163-.39004.02531-.78002.04102-1.16992.228166 30.78508 12.860843 58.59441 33.135522 78.69904 20.238667 20.06891 48.092211 32.46047 78.823456 32.47088 61.38589-.0191 111.31776-49.44754 111.95898-110.83008.0147.27664.0284.55334.041.83008 0 61.85589-50.14411 112-112 112z" opacity=".2"/>
  <g enable-background="new" fill="#faf8f6" transform="translate(-29.420633 -1005.916207)">
    <path d="m117.54762 1094.7893c-18.984777 0-34.374987 15.3903-34.374987 34.3749 0 18.9848 15.39021 34.3751 34.374987 34.3751 5.43501 0 10.78982-1.3143 15.62502-3.7963v25.6712a9.3749994 9.3749994 0 0 0 9.375 9.375 9.3749994 9.3749994 0 0 0 9.375-9.375v-56.25-34.3749h-18.75v3.7597c-4.83788-2.4712-10.19254-3.7579-15.62502-3.7597zm0 18.75c8.62945 0 15.62502 6.9956 15.62502 15.6249 0 8.6295-6.99557 15.6251-15.62502 15.6251-8.62944 0-15.62499-6.9956-15.62499-15.6251 0-8.6293 6.99555-15.6249 15.62499-15.6249z" fill="#aee3f8"/>
    <path d="m173.79762 1063.5392a9.3749994 9.3749994 0 0 0 -9.37498 9.375v56.25 34.3751h18.74998v-3.7597c4.83786 2.4709 10.19254 3.7579 15.62502 3.7597 18.98476 0 34.37499-15.3907 34.37499-34.3751s-15.39023-34.3749-34.37499-34.3749c-5.43505 0-10.78982 1.3083-15.62502 3.7903v-25.6654a9.3749994 9.3749994 0 0 0 -9.375-9.375zm25.00002 50.0001c8.62942 0 15.62499 6.996 15.62499 15.6249 0 8.6291-6.99557 15.6251-15.62499 15.6251-8.62949 0-15.62502-6.996-15.62502-15.6251 0-8.6289 6.99553-15.6249 15.62502-15.6249z" fill="#faf8f6"/>
  </g>
</svg>
